X:9
T:The Silver Spear
M:C|
K:D
L:1/8
"D"  FuA (3v.Au.Av.A {d}BAFA | vdfe(d "G" Bc)dA | "D" (FA) (3.A.A.A {d}BAFA | dfed "G" {Bd}B2 "A" AG |
"D" vFuA (3v.Au.Av.A {d}BAFA |  dfe(d "G" Bd)ef | "Em" (v~g3 e) "D" (~f3 e) | dfed "G" {Bd}B2 "A" AG :|
|: "D" vf2 uaf    bfaf | "G" gfe(d "A?" Bcde) | "D" vf2 (3v.au.av.a baaf | "Em" gfed "G" {Bd}B2 "A" A2 |
   "D" vf2 uaf    bfaf | "G" gfe(d "A?" Bdef) | "Em" (~g3 e) "D" (~f3 e) | dfed "G" {Bd}B2 "A" A2 :|

